!!!OTL: De klenge M&auml;nnchen (3-32), S. 82
!!!id: K1166
**kern
*clefG2
*k[b-]
*F:
{8c
=1
8f
8g
8a
8b-
=2
8cc
8cc
8cc}
=3
{8cc
=4
8.dd
16dd
8.ff
16dd
=5
4cc}
8r
=6
{8cc
=7
8cc
8b-
8b-
8b-
=8
8a
8a
8a}
=9
{8a
=10
8.g
16g
8.g
16g
=11
4f}
8r
==
*-
!!!minrhy: 16
!!!meters: 2/4 ]  ZZ[4
!!!cut: De klenge M&auml;nnchen (3-32), S. 82
!!!reg: Luxemburg
!!!trd: KINTZELE, Guillaume: An der Ucht, Bd. 3 Luxemburg 1928
!!!rhy1: X_  X_X_X_X_  X_X_X_
!!!rhy2: X_  X_.XX_.X  X__0_
!!!key: K1166  16  F 2/4 ]  ZZ[4
!!!mod: SECHSTONSKALA DUR ?]  AMBITUS[11
!!!kad: 5531
!!!akz: 15_65_53_21_
!!!fot: 'a__b__c__d__
!!!for: 'a__b__a__b__
!!!fok: '/__^__\__\__
!! PHRAS[AUFTAKTIG]
!!!fkt: Spottlied
!! KINTZELE
!! PR[19] 2K[3] 2G[13] 3K[10] 3G[4] 4A[3] 4Ü[0] 5A[0] 6K[0] 6G[0]
!! 7K[0] 7G[0] 8A[1] MEHR[0] SI[34] ABS[70] SR[16] SP[19]
!! ST[15] 2k[10] 2g[23] 3k[4] 3g[6] 4d[4] 4ü[0] 5d[0] 6k[0] 6g[0]
!! 7k[0] 7g[0] 8d[0] mehr[0] si[47] dm[-13] sr[33] sp[14]
!! 1F[9] 2F[51] 3F[14] 4F[12] LF[0] 2P[9] 3P[4] 4P[0] TRI[0] DF[6] AB[76]
!! TF[0] U3K[0] U3[0] U4[0] U4Ü[0] U5[0] U6K[0] U6[0] U7K[0] U7[0]
!! N1[4] N2K[0] N2[4] N3K[0] N3[10] N4[10] N4Ü[0] N5[18] N6K[0] N6[14]
!!!n7k: 0] N7[6] O1[18] O2K[0] O2[11] O3K[0] O3[4] HÖ[0
!!!RNB: symbol: &auml;      = a umlaut  (UTF-8: Å„)
